static/images/mobile/copyright/wikipedia-wordmark-nqo.svg

<?xml version="1.0" encoding="UTF-8"?>
<svg width="122px" height="21px" viewBox="0 0 122 21" version="1.1" xmlns="http://www.w3.org/2000/svg" xmlns:xlink="http://www.w3.org/1999/xlink">
    <title>nqo-wordmark</title>
    <g id="Page-1" stroke="none" stroke-width="1" fill="none" fill-rule="evenodd">
        <path d="M1,20.7367816 L1,6.55615309 L3.46012939,6.55615309 L3.46012939,18.5807028 L10.0666434,18.5807028 L10.0666434,6.55615309 L12.5267728,6.55615309 L12.5267728,17.0602205 C13.0059065,18.073799 13.9457445,18.5805883 15.3462868,18.5805883 L15.8714902,18.5805883 L15.8714902,20.7367816 L14.9316484,20.7367816 C14.2313772,20.7367816 13.6877368,20.6076689 13.3007272,20.3496727 C12.9137328,20.0916764 12.5267384,19.704682 12.1397441,19.1886895 C11.8633184,19.7231114 11.4578794,20.119309 10.9234269,20.3772824 C10.3890127,20.6168492 9.79007646,20.7366327 9.12661826,20.7366327 L1,20.7367816 Z M15.3410169,20.7367816 C15.17516,20.7367816 14.9448079,20.6907119 14.6499605,20.5985726 C14.3551054,20.5064256 14.133968,20.4050678 13.9865481,20.294499 L13.9865481,18.5806341 L25.0711071,18.5806341 L25.0711071,8.71227767 L19.5426324,8.71227767 L19.5426324,12.830938 L17.082503,12.830938 L17.082503,2.96258157 L19.5426324,2.96258157 L19.5426324,6.55608435 L25.0711071,6.55608435 L25.0711071,1 L27.5312365,1 L27.5312365,17.0044741 C28.0103702,18.0548655 28.9594114,18.5800613 30.3783602,18.5800613 L30.9035636,18.5800613 L30.9035636,20.73614 L29.9652913,20.73614 C29.2650201,20.73614 28.7213797,20.6071419 28.3343701,20.3491457 C27.9473757,20.0911494 27.5603813,19.704155 27.173387,19.1881626 C26.8969613,19.7225844 26.4915223,20.118782 25.9570698,20.3767554 C25.4226556,20.6163222 24.8237194,20.7361057 24.1602612,20.7361057 L15.3410169,20.7367816 Z M30.4037818,20.7367816 C30.2379249,20.7367816 30.0075727,20.6907119 29.7127253,20.5985726 C29.4178703,20.5064256 29.1967328,20.4050678 29.049313,20.294499 L29.049313,18.5806341 L33.7484648,18.5806341 C33.1587624,17.9356511 32.6980657,17.1708656 32.3663748,16.2862776 C32.053098,15.4016972 31.8964596,14.4157666 31.8964596,13.3284858 C31.8964596,11.8911 32.2189549,10.6195634 32.8639455,9.51387613 C33.5273579,8.40818884 34.4026969,7.54205313 35.4899624,6.915469 C36.5956497,6.28890777 37.8211319,5.97562716 39.1664089,5.97562716 C40.6406841,5.97562716 41.9122207,6.29812247 42.9810186,6.94311309 C44.0498166,7.56966667 44.8698597,8.42656095 45.441148,9.51379593 C46.0308504,10.5826703 46.3257016,11.7897078 46.3257016,13.1349084 C46.3257016,14.0563018 46.1967035,14.9132343 45.9387073,15.7057058 C45.6991404,16.4981011 45.3582195,17.216794 44.9159446,17.8617846 C45.4503589,18.3409183 46.1966997,18.5804852 47.1549671,18.5804852 L49.1728827,18.5804852 L49.1728827,20.7365639 L47.265406,20.7365639 C46.3993085,20.7365639 45.7359114,20.5983511 45.2752147,20.3219255 C44.8145104,20.0270781 44.3353691,19.5940293 43.8377907,19.0227792 C43.2112295,19.5756304 42.4925365,19.999476 41.6817119,20.2943157 C40.8893167,20.5891708 40.023181,20.7365983 39.0833048,20.7365983 L30.4037818,20.7367816 Z M39.1387648,18.5807028 C40.115454,18.5807028 40.9447385,18.3503507 41.6266185,17.8896464 C42.3268897,17.410505 42.8613268,16.7747176 43.22993,15.9822842 C43.6169244,15.1714825 43.8104215,14.2776989 43.8104215,13.3009334 C43.8104215,11.7713624 43.3957793,10.5274737 42.5664947,9.56926742 C41.7556166,8.59257825 40.6038368,8.10423367 39.1111551,8.10423367 C38.1897618,8.10423367 37.3789219,8.33458583 36.6786354,8.79529014 C35.9783643,9.23756505 35.4255206,9.864111 35.0201045,10.674928 C34.6146807,11.4673232 34.4119689,12.397958 34.4119689,13.4668323 C34.4119689,14.2961169 34.5686072,15.1069567 34.881884,15.899352 C35.2135902,16.6733407 35.7203795,17.3183313 36.4022518,17.8343238 C37.102523,18.3318869 38.0147131,18.5807028 39.1388221,18.5807028 L39.1387648,18.5807028 Z M48.65209,20.7368045 C48.4862331,20.7368045 48.2558809,20.6907119 47.9610335,20.5985726 C47.6661785,20.5064256 47.445041,20.4050678 47.2976212,20.294499 L47.2976212,18.5806341 L50.670017,18.5806341 L50.670017,14.1301988 C50.670017,12.010933 51.0570114,10.4445491 51.8310001,9.43104696 C52.6049889,8.39906198 53.6830283,7.88306948 55.0651183,7.88306948 C55.8206776,7.88306948 56.4840747,8.0397117 57.0553096,8.35299613 C57.6265826,8.64785116 58.0412249,9.03484553 58.2992364,9.51397924 C58.5940914,8.59258589 59.1100839,7.83704182 59.8472139,7.24734703 C60.5843438,6.65764459 61.5057372,6.36279338 62.6113939,6.36279338 C64.1961844,6.36279338 65.440073,6.86958263 66.3430599,7.88316113 C67.2460467,8.87825678 67.6975402,10.4262343 67.6975402,12.5270936 L67.6975402,17.0051385 C68.1766739,18.05553 69.1257151,18.5807257 70.5446639,18.5807257 L71.6503589,18.5807257 L71.6503589,20.7368045 L70.1299911,20.7368045 C69.4297199,20.7368045 68.8860795,20.6078064 68.4990699,20.3498101 C68.1120755,20.0918139 67.7250812,19.7048195 67.3380868,19.188827 C67.0616611,19.7232489 66.6562221,20.1194465 66.1217697,20.3774198 C65.5873478,20.6169867 64.9884116,20.7368045 64.324961,20.7368045 L48.65209,20.7368045 Z M59.8471681,18.5807028 L65.2373993,18.5807028 L65.2373993,12.2229055 C65.2373993,11.0619223 65.0254766,10.1589355 64.601631,9.51394487 C64.1962073,8.85053249 63.5235687,8.51882631 62.5837155,8.51882631 C61.6438622,8.51882631 60.9528172,8.87817659 60.5105804,9.59687714 C60.0683055,10.2971483 59.8471681,11.2369863 59.8471681,12.4163912 L59.8471681,18.5807028 Z M53.130135,18.5807028 L57.387073,18.5807028 L57.387073,13.7708829 C57.387073,12.6283063 57.2304346,11.7253194 56.9171578,11.0619223 C56.6223028,10.3800729 56.0694592,10.0391482 55.2586269,10.0391482 C54.6689245,10.0391482 54.2174311,10.2142198 53.9041466,10.5643631 C53.6092916,10.8960693 53.4065835,11.3567659 53.2960224,11.9464531 C53.1854537,12.5361555 53.130135,13.208794 53.130135,13.9643687 L53.130135,18.5807028 Z M70.5712311,20.7367816 C70.4053742,20.7367816 70.1750221,20.6907119 69.8801747,20.5985726 C69.5853196,20.5064256 69.3641822,20.4050678 69.2167623,20.294499 L69.2167623,18.5806341 L76.8460962,18.5806341 L76.8460962,11.0066342 L72.0362763,11.0066342 L72.0362763,8.85055541 L76.8460962,8.85055541 L76.8460962,3.15619332 L72.0362763,3.15619332 L72.0362763,1.00011456 L79.3062256,1.00011456 L79.3062256,17.0045886 C79.7669299,18.0549801 80.7159712,18.5801758 82.1533494,18.5801758 L82.6785528,18.5801758 L82.6785528,20.7362546 L81.7387109,20.7362546 C81.0384398,20.7362546 80.4947994,20.6072565 80.1077897,20.3492602 C79.7207953,20.091264 79.333801,19.7042696 78.9468066,19.1882771 C78.670381,19.722699 78.2649419,20.1188966 77.7304895,20.3768699 C77.1960752,20.6164368 76.5971772,20.7362202 75.9337954,20.7362202 L70.5712311,20.7367816 Z M82.1787709,20.7368274 C82.012914,20.7368274 81.7825619,20.6907119 81.4877145,20.5985726 C81.1928594,20.5064256 80.971722,20.4050678 80.8243021,20.294499 L80.8243021,18.5806341 L86.5738836,18.5806341 L86.5738836,11.0619682 L81.8747318,1.00011456 L84.3072514,1.00011456 L86.6844371,6.16920454 C86.8687158,6.57462831 87.062213,7.0169185 87.2649287,7.49607511 C87.4676367,7.95678706 87.6427045,8.39907725 87.790132,8.82294568 C87.9375672,8.39910016 88.1034241,7.9660514 88.2877028,7.5237994 C88.4904108,7.06309509 88.683908,6.63924957 88.8681943,6.25226284 L91.300714,1.00011456 L93.7332337,1.00011456 L89.0340818,11.0620827 L89.0340818,17.0051615 C89.4947861,18.0555529 90.4438273,18.5807487 91.8812055,18.5807487 L94.7836633,18.5807487 L94.7836633,20.7368274 L91.991759,20.7368274 C91.1624744,20.7368274 90.5174838,20.6078293 90.0567871,20.349833 C89.6145122,20.073415 89.1538156,19.6772174 88.6746971,19.1612402 C88.3982791,19.6956621 87.9928401,20.0918597 87.45838,20.349833 C86.9423952,20.6078293 86.3434971,20.7368274 85.6616859,20.7368274 L82.1787709,20.7368274 Z M94.2720586,20.7367816 C94.1062017,20.7367816 93.8758457,20.6907119 93.5809907,20.5985726 C93.2861433,20.5064256 93.0650058,20.4050678 92.9175783,20.294499 L92.9175783,18.5806341 L104.002137,18.5806341 L104.002137,8.71227767 L98.4736626,8.71227767 L98.4736626,12.830938 L96.0135333,12.830938 L96.0135333,2.96258157 L98.4736626,2.96258157 L98.4736626,6.55608435 L104.002137,6.55608435 L104.002137,1 L106.462267,1 L106.462267,17.0044741 C106.941393,18.0548655 107.890434,18.5800613 109.30939,18.5800613 L109.834582,18.5800613 L109.834582,20.73614 L108.894752,20.73614 C108.194481,20.73614 107.65084,20.6071419 107.263831,20.3491457 C106.876836,20.0911494 106.489842,19.704155 106.102848,19.1881626 C105.826422,19.7225844 105.420983,20.118782 104.886531,20.3767554 C104.352116,20.6163222 103.75318,20.7361057 103.089722,20.7361057 L94.2720586,20.7367816 Z M109.334823,20.7367816 C109.168967,20.7367816 108.938614,20.6907119 108.643767,20.5985726 C108.348912,20.5064256 108.127774,20.4050678 107.980355,20.294499 L107.980355,18.5806341 L111.35275,18.5806341 L111.35275,13.0245497 C111.35275,10.2234804 112.836229,8.82294568 115.803186,8.82294568 L118.539756,8.82294568 L118.539756,3.15630788 L111.629191,3.15630788 L111.629191,1.00022913 L121,1.00022913 L121,17.503053 C121,18.6271467 120.677505,19.4471899 120.032514,19.9631824 C119.387523,20.4791749 118.585887,20.7371711 117.627604,20.7371711 L109.334823,20.7367816 Z M113.812868,13.2181157 L113.812868,18.5807028 L118.539745,18.5807028 L118.539745,10.9790932 L115.609677,10.9790932 C114.927828,10.9790932 114.45789,11.1818051 114.199863,11.5872288 C113.941874,11.9742156 113.812868,12.517856 113.812868,13.21815 L113.812868,13.2181157 Z" id="nqo-wordmark" stroke="#000000" stroke-width="0.24128" fill="#000000" fill-rule="nonzero"></path>
    </g>
</svg>

<svg xmlns="http://www.w3.org/2000/svg" width="122" height="21"><path fill="#000" fill-rule="nonzero" stroke="#000" stroke-width=".241" d="M1 20.737V6.557h2.46V18.58h6.607V6.556h2.46V17.06c.479 1.014 1.419 1.52 2.82 1.52h.524v2.157h-.94c-.7 0-1.243-.13-1.63-.387-.387-.258-.774-.645-1.161-1.161a2.62 2.62 0 0 1-1.217 1.188c-.534.24-1.133.36-1.796.36H1Zm14.341 0c-.166 0-.396-.046-.691-.138-.295-.093-.516-.194-.663-.305v-1.713H25.07V8.712h-5.528v4.119h-2.46V2.963h2.46v3.593h5.528V1h2.46v16.004c.48 1.05 1.428 1.576 2.847 1.576h.526v2.156h-.939c-.7 0-1.244-.129-1.63-.387-.388-.258-.775-.645-1.162-1.16a2.62 2.62 0 0 1-1.216 1.188c-.534.24-1.133.36-1.797.36h-8.819Zm15.063 0c-.166 0-.396-.046-.691-.138-.295-.093-.516-.194-.664-.305v-1.713h4.7a7 7 0 0 1-1.383-2.295c-.313-.884-.47-1.87-.47-2.958 0-1.437.323-2.708.968-3.814a7.242 7.242 0 0 1 2.626-2.599c1.106-.626 2.331-.94 3.676-.94 1.475 0 2.746.323 3.815.968a6.352 6.352 0 0 1 2.46 2.57c.59 1.07.885 2.277.885 3.622 0 .921-.13 1.778-.387 2.57a7.75 7.75 0 0 1-1.023 2.157c.534.479 1.28.718 2.239.718h2.018v2.157h-1.908c-.866 0-1.53-.139-1.99-.415-.46-.295-.94-.728-1.437-1.3a6.671 6.671 0 0 1-2.156 1.272c-.793.295-1.659.443-2.599.443h-8.68Zm8.735-2.156c.976 0 1.806-.23 2.488-.691a4.629 4.629 0 0 0 1.603-1.908c.387-.81.58-1.704.58-2.681 0-1.53-.414-2.774-1.244-3.732-.81-.976-1.962-1.465-3.455-1.465-.921 0-1.732.23-2.432.691-.7.443-1.253 1.07-1.659 1.88-.405.792-.608 1.723-.608 2.792 0 .83.157 1.64.47 2.432a4.725 4.725 0 0 0 1.52 1.935c.7.498 1.613.747 2.737.747Zm9.513 2.156c-.166 0-.396-.046-.691-.138-.295-.093-.516-.194-.663-.305v-1.713h3.372v-4.45c0-2.12.387-3.686 1.161-4.7.774-1.032 1.852-1.548 3.234-1.548.756 0 1.42.157 1.99.47.572.295.986.682 1.244 1.161a4.65 4.65 0 0 1 1.548-2.267c.737-.59 1.659-.884 2.764-.884 1.585 0 2.83.507 3.732 1.52.903.995 1.355 2.543 1.355 4.644v4.478c.479 1.05 1.428 1.576 2.847 1.576h1.105v2.156h-1.52c-.7 0-1.244-.13-1.63-.387-.388-.258-.775-.645-1.162-1.161a2.62 2.62 0 0 1-1.216 1.188c-.535.24-1.134.36-1.797.36H48.652Zm11.195-2.156h5.39v-6.358c0-1.161-.212-2.064-.635-2.71-.406-.662-1.078-.994-2.018-.994-.94 0-1.631.36-2.073 1.078-.443.7-.664 1.64-.664 2.82v6.164Zm-6.717 0h4.257v-4.81c0-1.143-.157-2.046-.47-2.71-.295-.68-.848-1.022-1.658-1.022-.59 0-1.042.175-1.355.525-.295.332-.497.793-.608 1.382-.11.59-.166 1.263-.166 2.018v4.617Zm17.441 2.156c-.166 0-.396-.046-.69-.138-.296-.093-.517-.194-.664-.305v-1.713h7.63v-7.574h-4.81V8.85h4.81V3.156h-4.81V1h7.27v16.005c.46 1.05 1.409 1.575 2.846 1.575h.526v2.156h-.94c-.7 0-1.244-.129-1.631-.387s-.774-.645-1.161-1.16a2.62 2.62 0 0 1-1.217 1.188c-.534.24-1.133.36-1.796.36H70.57Zm11.608 0c-.166 0-.396-.046-.691-.138-.295-.093-.516-.194-.664-.305v-1.713h5.75v-7.519L81.874 1h2.433l2.377 5.17c.185.405.378.847.58 1.326.204.46.379.903.526 1.327.148-.424.313-.857.498-1.3.202-.46.396-.884.58-1.27L91.301 1h2.432l-4.699 10.062v5.943c.46 1.05 1.41 1.576 2.847 1.576h2.903v2.156h-2.792c-.83 0-1.475-.13-1.935-.387-.442-.277-.903-.673-1.382-1.189a2.62 2.62 0 0 1-1.217 1.189c-.516.258-1.115.387-1.796.387h-3.483Zm12.093 0c-.166 0-.396-.046-.691-.138-.295-.093-.516-.194-.663-.305v-1.713h11.084V8.712h-5.528v4.119h-2.46V2.963h2.46v3.593h5.528V1h2.46v16.004c.48 1.05 1.428 1.576 2.847 1.576h.526v2.156h-.94c-.7 0-1.244-.129-1.631-.387s-.774-.645-1.161-1.16a2.62 2.62 0 0 1-1.216 1.188c-.535.24-1.134.36-1.797.36h-8.818Zm15.063 0c-.166 0-.396-.046-.691-.138-.295-.093-.516-.194-.664-.305v-1.713h3.373v-5.556c0-2.802 1.483-4.202 4.45-4.202h2.737V3.156h-6.91V1H121v16.503c0 1.124-.322 1.944-.967 2.46s-1.447.774-2.405.774h-8.293Zm4.478-7.519v5.363h4.727v-7.602h-2.93c-.682 0-1.152.203-1.41.608-.258.387-.387.93-.387 1.631Z"/></svg>
